public/img/ui/web.svg

<svg fill="none" height="212" viewBox="0 0 302 212" width="302" xmlns="http://www.w3.org/2000/svg"><path d="m274.963 48.2238c6.951 0 12.586-5.6397 12.586-12.5967 0-6.9571-5.635-12.5968-12.586-12.5968s-12.586 5.6397-12.586 12.5968c0 6.957 5.635 12.5967 12.586 12.5967z" fill="#ff3939"/><path d="m129.576 101.5h-61.1821c-3.7881 0-6.859 3.073-6.859 6.865v63.756c0 3.791 3.0709 6.865 6.859 6.865h61.1821c3.788 0 6.859-3.074 6.859-6.865v-63.756c0-3.792-3.071-6.865-6.859-6.865z" fill="#ff3939"/><path d="m235.41 101.5h-80.57c-3.788 0-6.859 3.073-6.859 6.865v21.012c0 3.791 3.071 6.864 6.859 6.864h80.57c3.788 0 6.859-3.073 6.859-6.864v-21.012c0-3.792-3.071-6.865-6.859-6.865z" fill="#ff3939"/><path d="m2.00491 7.19012-.25149 197.02388 2.26346 6.052h10.75142s-5.20138-1.642-6.50458-4.925c-1.3032-3.284 0-192.1843 0-192.1843h288.61428s1.932-12.911402-7.528-12.911402h-279.7888s-7.55629-.966779-7.55629 6.944822z" fill="#ff3939"/><g fill="#000"><path d="m293.877 211.124h-280.0633c-4.25251 0-7.71629-3.467-7.71629-7.723v-193.68257c0-4.25614 3.46378-7.72282 7.71629-7.72282h280.0633c4.252 0 7.716 3.46668 7.716 7.72282v193.68257c0 4.256-3.464 7.723-7.716 7.723zm-280.0633-207.41221c-3.3094 0-6.00155 2.69441-6.00155 6.00664v193.68257c0 3.312 2.69215 6.007 6.00155 6.007h280.0633c3.309 0 6.001-2.695 6.001-6.007v-193.68257c0-3.31223-2.692-6.00664-6.001-6.00664z"/><path d="m95.9213 211.124h-88.12061c-3.80673 0-6.904694-3.1-6.904694-6.91v-195.31327c0-3.80992 3.097964-6.9105 6.904694-6.9105h88.12061c.4744 0 .8573.38329.8573.8581s-.3829.85809-.8573.85809h-88.12061c-2.85791 0-5.18995 2.32829-5.18995 5.19431v195.30727c0 2.866 2.32633 5.194 5.18995 5.194h88.12061c.4744 0 .8573.384.8573.858 0 .475-.3829.859-.8573.859z"/><path d="m6.95478 17.3268c-.47441 0-.85737-.3832-.85737-.858 0-.4749.38296-.8581.85737-.8581l293.78122-.7723c.474 0 .857.3833.857.8581s-.383.8581-.857.8581z"/><path d="m19.3524 14.0147c-2.3893 0-4.3326-1.945-4.3326-4.33619 0-2.39122 1.9433-4.33622 4.3326-4.33622 2.3892 0 4.3325 1.945 4.3325 4.33622 0 2.39119-1.9433 4.33619-4.3325 4.33619zm0-6.95051c-1.4404 0-2.6179 1.17272-2.6179 2.62004 0 1.44727 1.1718 2.62007 2.6179 2.62007s2.6178-1.1728 2.6178-2.62007c0-1.44732-1.1717-2.62004-2.6178-2.62004z"/><path d="m30.9669 14.0147c-2.3892 0-4.3326-1.945-4.3326-4.33619 0-2.39122 1.9434-4.33622 4.3326-4.33622s4.3325 1.945 4.3325 4.33622c0 2.39119-1.9433 4.33619-4.3325 4.33619zm0-6.95051c-1.4404 0-2.6179 1.17272-2.6179 2.62004 0 1.44727 1.1718 2.62007 2.6179 2.62007s2.6178-1.1728 2.6178-2.62007c0-1.44732-1.1717-2.62004-2.6178-2.62004z"/><path d="m42.5814 14.0147c-2.3892 0-4.3326-1.945-4.3326-4.33619 0-2.39122 1.9434-4.33622 4.3326-4.33622s4.3325 1.945 4.3325 4.33622c0 2.39119-1.9433 4.33619-4.3325 4.33619zm0-6.95051c-1.4404 0-2.6179 1.17272-2.6179 2.62004 0 1.44727 1.1718 2.62007 2.6179 2.62007s2.6178-1.1728 2.6178-2.62007c0-1.44732-1.1717-2.62004-2.6178-2.62004z"/><path d="m133.84 176.108h-61.182c-4.2526 0-7.7163-3.467-7.7163-7.723v-63.756c0-4.256 3.4637-7.7228 7.7163-7.7228h61.182c4.253 0 7.716 3.4668 7.716 7.7228v63.756c0 4.256-3.463 7.723-7.716 7.723zm-61.182-77.4856c-3.3095 0-6.0016 2.6946-6.0016 6.0066v63.756c0 3.313 2.6921 6.007 6.0016 6.007h61.182c3.309 0 6.002-2.694 6.002-6.007v-63.756c0-3.312-2.693-6.0066-6.002-6.0066z"/><path d="m131.891 176.108h-65.8177c-2.9779 0-5.4014-2.425-5.4014-5.406v-68.39c0-2.9802 2.4235-5.4058 5.4014-5.4058h65.8177c.474 0 .857.3833.857.8581 0 .4749-.383.8581-.857.8581h-65.8177c-2.0291 0-3.6867 1.6536-3.6867 3.6896v68.39c0 2.031 1.6519 3.69 3.6867 3.69h65.8177c.474 0 .857.383.857.858s-.383.858-.857.858z"/><path d="m239.297 132.323h-79.507c-4.253 0-7.717-3.467-7.717-7.723v-19.971c0-4.256 3.464-7.7228 7.717-7.7228h79.507c4.252 0 7.716 3.4668 7.716 7.7228v19.971c0 4.256-3.464 7.723-7.716 7.723zm-79.507-33.7006c-3.31 0-6.002 2.6946-6.002 6.0066v19.971c0 3.312 2.692 6.006 6.002 6.006h79.507c3.309 0 6.001-2.694 6.001-6.006v-19.971c0-3.312-2.692-6.0066-6.001-6.0066z"/><path d="m237.348 132.323h-84.143c-2.978 0-5.401-2.426-5.401-5.406v-24.605c0-2.9802 2.423-5.4058 5.401-5.4058h84.143c.474 0 .857.3833.857.8581 0 .4749-.383.8581-.857.8581h-84.143c-2.029 0-3.687 1.6536-3.687 3.6896v24.605c0 2.03 1.652 3.689 3.687 3.689h84.143c.474 0 .857.384.857.858 0 .475-.383.859-.857.859z"/><path d="m239.297 176.108h-79.507c-4.253 0-7.717-3.466-7.717-7.723v-19.97c0-4.256 3.464-7.723 7.717-7.723h79.507c4.252 0 7.716 3.467 7.716 7.723v19.97c0 4.257-3.464 7.723-7.716 7.723zm-79.507-33.7c-3.31 0-6.002 2.694-6.002 6.007v19.97c0 3.313 2.692 6.007 6.002 6.007h79.507c3.309 0 6.001-2.694 6.001-6.007v-19.97c0-3.313-2.692-6.007-6.001-6.007z"/><path d="m237.348 176.108h-84.143c-2.978 0-5.401-2.425-5.401-5.406v-24.604c0-2.981 2.423-5.406 5.401-5.406h84.143c.474 0 .857.383.857.858s-.383.858-.857.858h-84.143c-2.029 0-3.687 1.653-3.687 3.69v24.604c0 2.031 1.652 3.69 3.687 3.69h84.143c.474 0 .857.383.857.858s-.383.858-.857.858z"/><path d="m239.296 78.3432h-166.6383c-4.2525 0-7.7163-3.4667-7.7163-7.7228v-8.2892c0-4.2561 3.4638-7.7228 7.7163-7.7228h166.6333c4.252 0 7.716 3.4667 7.716 7.7228v8.2892c0 4.2561-3.464 7.7228-7.716 7.7228zm-166.6325-22.0186c-3.3095 0-6.0016 2.6944-6.0016 6.0066v8.2892c0 3.3122 2.6921 6.0066 6.0016 6.0066h166.6325c3.31 0 6.002-2.6944 6.002-6.0066v-8.2892c0-3.3122-2.692-6.0066-6.002-6.0066h-166.6383z"/><path d="m237.347 78.3432h-171.2681c-2.9779 0-5.4014-2.4255-5.4014-5.406v-12.9228c0-2.9805 2.4235-5.406 5.4014-5.406h171.2681c.475 0 .858.3833.858.8581s-.383.8581-.858.8581h-171.2681c-2.0291 0-3.6867 1.6532-3.6867 3.6898v12.9228c0 2.0309 1.6519 3.6898 3.6867 3.6898h171.2681c.475 0 .858.3833.858.8581s-.383.8581-.858.8581z"/><path d="m277.489 47.2344c-7.413 0-13.443-6.0352-13.443-13.4548s6.03-13.4549 13.443-13.4549c7.414 0 13.444 6.0353 13.444 13.4549s-6.03 13.4548-13.444 13.4548zm0-25.1935c-6.47 0-11.728 5.2687-11.728 11.7387s5.264 11.7387 11.728 11.7387c6.465 0 11.729-5.2687 11.729-11.7387s-5.264-11.7387-11.729-11.7387z"/><path d="m277.49 47.2344h-4.407c-7.414 0-13.444-6.0352-13.444-13.4548s6.03-13.4549 13.444-13.4549h4.407c.474 0 .857.3833.857.8581s-.383.8581-.857.8581h-4.407c-6.471 0-11.729 5.2687-11.729 11.7387s5.264 11.7387 11.729 11.7387h4.407c.474 0 .857.3832.857.8581 0 .4748-.383.858-.857.858z"/></g></svg>

<svg width="302" height="212" viewBox="0 0 302 212" fill="none" xmlns="http://www.w3.org/2000/svg">
<path d="M274.963 48.2238C281.914 48.2238 287.549 42.5841 287.549 35.6271C287.549 28.67 281.914 23.0303 274.963 23.0303C268.012 23.0303 262.377 28.67 262.377 35.6271C262.377 42.5841 268.012 48.2238 274.963 48.2238Z" fill="#FF3939"/>
<path d="M129.576 101.5H68.3939C64.6058 101.5 61.5349 104.573 61.5349 108.365V172.121C61.5349 175.912 64.6058 178.986 68.3939 178.986H129.576C133.364 178.986 136.435 175.912 136.435 172.121V108.365C136.435 104.573 133.364 101.5 129.576 101.5Z" fill="#FF3939"/>
<path d="M235.41 101.5H154.84C151.052 101.5 147.981 104.573 147.981 108.365V129.377C147.981 133.168 151.052 136.241 154.84 136.241H235.41C239.198 136.241 242.269 133.168 242.269 129.377V108.365C242.269 104.573 239.198 101.5 235.41 101.5Z" fill="#FF3939"/>
<path d="M2.00491 7.19012L1.75342 204.214L4.01688 210.266H14.7683C14.7683 210.266 9.56692 208.624 8.26372 205.341C6.96052 202.057 8.26372 13.1567 8.26372 13.1567H296.878C296.878 13.1567 298.81 0.245298 289.35 0.245298H9.5612C9.5612 0.245298 2.00491 -0.721481 2.00491 7.19012Z" fill="#FF3939"/>
<path d="M293.877 211.124H13.8137C9.56119 211.124 6.09741 207.657 6.09741 203.401V9.71843C6.09741 5.46229 9.56119 1.99561 13.8137 1.99561H293.877C298.129 1.99561 301.593 5.46229 301.593 9.71843V203.401C301.593 207.657 298.129 211.124 293.877 211.124ZM13.8137 3.71179C10.5043 3.71179 7.81215 6.4062 7.81215 9.71843V203.401C7.81215 206.713 10.5043 209.408 13.8137 209.408H293.877C297.186 209.408 299.878 206.713 299.878 203.401V9.71843C299.878 6.4062 297.186 3.71179 293.877 3.71179H13.8137Z" fill="black"/>
<path d="M95.9213 211.124H7.80069C3.99396 211.124 0.895996 208.024 0.895996 204.214V8.90073C0.895996 5.09081 3.99396 1.99023 7.80069 1.99023H95.9213C96.3957 1.99023 96.7786 2.37352 96.7786 2.84833C96.7786 3.32314 96.3957 3.70642 95.9213 3.70642H7.80069C4.94278 3.70642 2.61074 6.03471 2.61074 8.90073V204.208C2.61074 207.074 4.93707 209.402 7.80069 209.402H95.9213C96.3957 209.402 96.7786 209.786 96.7786 210.26C96.7786 210.735 96.3957 211.119 95.9213 211.119V211.124Z" fill="black"/>
<path d="M6.95478 17.3268C6.48037 17.3268 6.09741 16.9436 6.09741 16.4688C6.09741 15.9939 6.48037 15.6107 6.95478 15.6107L300.736 14.8384C301.21 14.8384 301.593 15.2217 301.593 15.6965C301.593 16.1713 301.21 16.5546 300.736 16.5546L6.95478 17.3268Z" fill="black"/>
<path d="M19.3524 14.0147C16.9631 14.0147 15.0198 12.0697 15.0198 9.67851C15.0198 7.28729 16.9631 5.34229 19.3524 5.34229C21.7416 5.34229 23.6849 7.28729 23.6849 9.67851C23.6849 12.0697 21.7416 14.0147 19.3524 14.0147ZM19.3524 7.06419C17.912 7.06419 16.7345 8.23691 16.7345 9.68423C16.7345 11.1315 17.9063 12.3043 19.3524 12.3043C20.7985 12.3043 21.9702 11.1315 21.9702 9.68423C21.9702 8.23691 20.7985 7.06419 19.3524 7.06419Z" fill="black"/>
<path d="M30.9669 14.0147C28.5777 14.0147 26.6343 12.0697 26.6343 9.67851C26.6343 7.28729 28.5777 5.34229 30.9669 5.34229C33.3561 5.34229 35.2994 7.28729 35.2994 9.67851C35.2994 12.0697 33.3561 14.0147 30.9669 14.0147ZM30.9669 7.06419C29.5265 7.06419 28.349 8.23691 28.349 9.68423C28.349 11.1315 29.5208 12.3043 30.9669 12.3043C32.413 12.3043 33.5847 11.1315 33.5847 9.68423C33.5847 8.23691 32.413 7.06419 30.9669 7.06419Z" fill="black"/>
<path d="M42.5814 14.0147C40.1922 14.0147 38.2488 12.0697 38.2488 9.67851C38.2488 7.28729 40.1922 5.34229 42.5814 5.34229C44.9706 5.34229 46.9139 7.28729 46.9139 9.67851C46.9139 12.0697 44.9706 14.0147 42.5814 14.0147ZM42.5814 7.06419C41.141 7.06419 39.9635 8.23691 39.9635 9.68423C39.9635 11.1315 41.1353 12.3043 42.5814 12.3043C44.0275 12.3043 45.1992 11.1315 45.1992 9.68423C45.1992 8.23691 44.0275 7.06419 42.5814 7.06419Z" fill="black"/>
<path d="M133.84 176.108H72.658C68.4054 176.108 64.9417 172.641 64.9417 168.385V104.629C64.9417 100.373 68.4054 96.9062 72.658 96.9062H133.84C138.093 96.9062 141.556 100.373 141.556 104.629V168.385C141.556 172.641 138.093 176.108 133.84 176.108ZM72.658 98.6224C69.3485 98.6224 66.6564 101.317 66.6564 104.629V168.385C66.6564 171.698 69.3485 174.392 72.658 174.392H133.84C137.149 174.392 139.842 171.698 139.842 168.385V104.629C139.842 101.317 137.149 98.6224 133.84 98.6224H72.658Z" fill="black"/>
<path d="M131.891 176.108H66.0733C63.0954 176.108 60.6719 173.683 60.6719 170.702V102.312C60.6719 99.3318 63.0954 96.9062 66.0733 96.9062H131.891C132.365 96.9062 132.748 97.2895 132.748 97.7643C132.748 98.2392 132.365 98.6224 131.891 98.6224H66.0733C64.0442 98.6224 62.3866 100.276 62.3866 102.312V170.702C62.3866 172.733 64.0385 174.392 66.0733 174.392H131.891C132.365 174.392 132.748 174.775 132.748 175.25C132.748 175.725 132.365 176.108 131.891 176.108Z" fill="black"/>
<path d="M239.297 132.323H159.79C155.537 132.323 152.073 128.856 152.073 124.6V104.629C152.073 100.373 155.537 96.9062 159.79 96.9062H239.297C243.549 96.9062 247.013 100.373 247.013 104.629V124.6C247.013 128.856 243.549 132.323 239.297 132.323ZM159.79 98.6224C156.48 98.6224 153.788 101.317 153.788 104.629V124.6C153.788 127.912 156.48 130.606 159.79 130.606H239.297C242.606 130.606 245.298 127.912 245.298 124.6V104.629C245.298 101.317 242.606 98.6224 239.297 98.6224H159.79Z" fill="black"/>
<path d="M237.348 132.323H153.205C150.227 132.323 147.804 129.897 147.804 126.917V102.312C147.804 99.3318 150.227 96.9062 153.205 96.9062H237.348C237.822 96.9062 238.205 97.2895 238.205 97.7643C238.205 98.2392 237.822 98.6224 237.348 98.6224H153.205C151.176 98.6224 149.518 100.276 149.518 102.312V126.917C149.518 128.947 151.17 130.606 153.205 130.606H237.348C237.822 130.606 238.205 130.99 238.205 131.464C238.205 131.939 237.822 132.323 237.348 132.323Z" fill="black"/>
<path d="M239.297 176.108H159.79C155.537 176.108 152.073 172.642 152.073 168.385V148.415C152.073 144.159 155.537 140.692 159.79 140.692H239.297C243.549 140.692 247.013 144.159 247.013 148.415V168.385C247.013 172.642 243.549 176.108 239.297 176.108ZM159.79 142.408C156.48 142.408 153.788 145.102 153.788 148.415V168.385C153.788 171.698 156.48 174.392 159.79 174.392H239.297C242.606 174.392 245.298 171.698 245.298 168.385V148.415C245.298 145.102 242.606 142.408 239.297 142.408H159.79Z" fill="black"/>
<path d="M237.348 176.108H153.205C150.227 176.108 147.804 173.683 147.804 170.702V146.098C147.804 143.117 150.227 140.692 153.205 140.692H237.348C237.822 140.692 238.205 141.075 238.205 141.55C238.205 142.025 237.822 142.408 237.348 142.408H153.205C151.176 142.408 149.518 144.061 149.518 146.098V170.702C149.518 172.733 151.17 174.392 153.205 174.392H237.348C237.822 174.392 238.205 174.775 238.205 175.25C238.205 175.725 237.822 176.108 237.348 176.108Z" fill="black"/>
<path d="M239.296 78.3432H72.6577C68.4052 78.3432 64.9414 74.8765 64.9414 70.6204V62.3312C64.9414 58.0751 68.4052 54.6084 72.6577 54.6084H239.291C243.543 54.6084 247.007 58.0751 247.007 62.3312V70.6204C247.007 74.8765 243.543 78.3432 239.291 78.3432H239.296ZM72.6635 56.3246C69.354 56.3246 66.6619 59.019 66.6619 62.3312V70.6204C66.6619 73.9326 69.354 76.627 72.6635 76.627H239.296C242.606 76.627 245.298 73.9326 245.298 70.6204V62.3312C245.298 59.019 242.606 56.3246 239.296 56.3246H72.6577H72.6635Z" fill="black"/>
<path d="M237.347 78.3432H66.0789C63.101 78.3432 60.6775 75.9177 60.6775 72.9372V60.0144C60.6775 57.0339 63.101 54.6084 66.0789 54.6084H237.347C237.822 54.6084 238.205 54.9917 238.205 55.4665C238.205 55.9413 237.822 56.3246 237.347 56.3246H66.0789C64.0498 56.3246 62.3922 57.9778 62.3922 60.0144V72.9372C62.3922 74.9681 64.0441 76.627 66.0789 76.627H237.347C237.822 76.627 238.205 77.0103 238.205 77.4851C238.205 77.9599 237.822 78.3432 237.347 78.3432Z" fill="black"/>
<path d="M277.489 47.2344C270.076 47.2344 264.046 41.1992 264.046 33.7796C264.046 26.36 270.076 20.3247 277.489 20.3247C284.903 20.3247 290.933 26.36 290.933 33.7796C290.933 41.1992 284.903 47.2344 277.489 47.2344ZM277.489 22.0409C271.019 22.0409 265.761 27.3096 265.761 33.7796C265.761 40.2496 271.025 45.5183 277.489 45.5183C283.954 45.5183 289.218 40.2496 289.218 33.7796C289.218 27.3096 283.954 22.0409 277.489 22.0409Z" fill="black"/>
<path d="M277.49 47.2344H273.083C265.669 47.2344 259.639 41.1992 259.639 33.7796C259.639 26.36 265.669 20.3247 273.083 20.3247H277.49C277.964 20.3247 278.347 20.708 278.347 21.1828C278.347 21.6576 277.964 22.0409 277.49 22.0409H273.083C266.612 22.0409 261.354 27.3096 261.354 33.7796C261.354 40.2496 266.618 45.5183 273.083 45.5183H277.49C277.964 45.5183 278.347 45.9015 278.347 46.3764C278.347 46.8512 277.964 47.2344 277.49 47.2344Z" fill="black"/>
</svg>
